public/build/img/shopping-basket.svg

<svg width="43" height="36" viewBox="0 0 43 36" fill="none" xmlns="http://www.w3.org/2000/svg">
<path d="M40.25 13.125H31.0692L22.6742 0.825C22.31 0.3 21.6967 0 21.0833 0C20.47 0 19.8567 0.3 19.4925 0.84375L11.0975 13.125H1.91667C0.8625 13.125 0 13.9688 0 15C0 15.1687 -7.14014e-08 15.3375 0.0766666 15.5063L4.945 32.8875C5.38583 34.4625 6.86167 35.625 8.625 35.625H33.5417C35.305 35.625 36.7808 34.4625 37.2408 32.8875L42.1092 15.5063L42.1667 15C42.1667 13.9688 41.3042 13.125 40.25 13.125ZM21.0833 5.25L26.45 13.125H15.7167L21.0833 5.25ZM33.5417 31.875H8.625L4.4275 16.875H37.7583L33.5417 31.875ZM21.0833 20.625C18.975 20.625 17.25 22.3125 17.25 24.375C17.25 26.4375 18.975 28.125 21.0833 28.125C23.1917 28.125 24.9167 26.4375 24.9167 24.375C24.9167 22.3125 23.1917 20.625 21.0833 20.625Z" fill="#1E1E1E"/>
</svg>

<svg width="43" height="36" fill="none" xmlns="http://www.w3.org/2000/svg"><path d="M40.25 13.125h-9.18L22.673.825A1.952 1.952 0 0021.084 0c-.614 0-1.227.3-1.591.844l-8.395 12.281H1.917C.863 13.125 0 13.969 0 15c0 .169 0 .338.077.506l4.868 17.382c.44 1.575 1.917 2.737 3.68 2.737h24.917c1.763 0 3.239-1.163 3.699-2.737l4.868-17.382.058-.506c0-1.031-.863-1.875-1.917-1.875zM21.083 5.25l5.367 7.875H15.717l5.366-7.875zm12.459 26.625H8.625l-4.197-15h33.33l-4.216 15zm-12.459-11.25c-2.108 0-3.833 1.688-3.833 3.75 0 2.063 1.725 3.75 3.833 3.75 2.109 0 3.834-1.688 3.834-3.75 0-2.063-1.725-3.75-3.834-3.75z" fill="#1E1E1E"/></svg>
